X:2282
L:1/8
Q:1/4=180
M:9/8
K:D
 D | D2 A FDA B2 A | D2 A FDA d2 A | D2 A FDA B2 c | dAB AFD E2 :: D | d2 A dAd e2 f | 
 d2 A dfe e2 A | d2 A dAd e2 f | dAB AFD E2 :|

